X:12939
T: Marie-Walzer CF (wz07556) 
S:Hanny Christen. Bd.V  Basel II, Jura. S.86  (wz07556) orig. C,F
T: Basel II. Tänze aus Olsberg. S.85-94.
S:Überliefert durch Hans Bürgi (Olsberg, 29. März 1942)
%%MIDI program 21
R:Walzer
M:3/4
L:1/4
K:C %%MIDI gchordon
("C"G2E) | czE | ("G7"G2F) | FzG | (G2F) | dzF | ("C"A2G) | EzG | (G2E) | czB | 
(A2G) | ezd | "F"cBA | "G7"GAB | "C"c>cc |1 czG :|2 ccc [K:F] |: "C7"dzc | G3 | "F"dzc | A3 | 
"C7"Gzd | czc | ("F"dc) .=B |  c3 | "C7"dzc | G3 | "F"dzc | A3 | ("C"Gc) .e | ("G7"G=B).d | "C7"c>cc |1 
ccc :|2 czz || "F"F3 | A3 | c>FF | FFF |: "F"F2A | c2A | "C7"c2B | GzC | C2E | 
G3 | ("F"B2A) | FzF | ("Bb"F2d) | BzA | ("F/C"G2F)   | czB | ("C7"A2G) | (B2E) | "F"F>ff | fzz :| 
% wz07556
% Feb 26, 2018 (Uddhava)

